src/images/react-icon.svg

<svg width="33" height="33" viewBox="0 0 33 33" fill="none" xmlns="http://www.w3.org/2000/svg">
<path d="M6.1875 2.0625H26.8125C29.0813 2.0625 30.9375 3.91875 30.9375 6.1875V26.8125C30.9375 29.0813 29.0813 30.9375 26.8125 30.9375H6.1875C3.91875 30.9375 2.0625 29.0813 2.0625 26.8125V6.1875C2.0625 3.91875 3.91875 2.0625 6.1875 2.0625Z" fill="#902BA9"/>
<path d="M28.3594 16.5C28.3594 14.85 26.4 13.5094 23.5125 12.5812C24.2344 9.59062 23.925 7.21875 22.5844 6.49688C22.1719 6.29063 21.8625 6.1875 21.45 6.1875C20.1094 6.1875 18.4594 7.11562 16.8094 8.76562C15.0562 7.11562 13.4062 6.1875 12.0656 6.1875C11.6531 6.1875 11.2406 6.29063 10.9313 6.49688C9.59063 7.21875 9.28125 9.59062 10.0031 12.5812C7.11562 13.5094 5.15625 14.85 5.15625 16.5C5.15625 18.15 7.11562 19.4906 10.0031 20.4187C9.28125 23.4094 9.4875 25.7812 10.9313 26.6062C11.2406 26.8125 11.6531 26.9156 12.0656 26.9156C13.4062 26.9156 15.0563 25.9875 16.7063 24.3375C18.3563 25.9875 20.1094 26.9156 21.3469 26.9156C21.7594 26.9156 22.1719 26.8125 22.4812 26.6062C23.8219 25.7812 24.1313 23.4094 23.4094 20.4187C26.4 19.4906 28.3594 18.0469 28.3594 16.5ZM21.45 7.32187C21.6562 7.32187 21.8625 7.32187 21.9656 7.425C22.5844 7.8375 22.8938 9.17813 22.6875 10.9313C22.5844 11.3438 22.5844 11.8594 22.4812 12.2719C21.5531 12.0656 20.5219 11.8594 19.4906 11.7562C18.8719 10.9312 18.2531 10.1062 17.6344 9.4875C19.0781 8.04375 20.5219 7.32187 21.45 7.32187ZM19.9031 18.3562C19.5937 18.975 19.1812 19.4906 18.8719 20.1094C18.15 20.1094 17.5312 20.2125 16.8094 20.2125C16.0875 20.2125 15.3656 20.2125 14.7469 20.1094C14.3344 19.5938 14.025 18.975 13.7156 18.3562C13.4063 17.7375 13.0969 17.1188 12.7875 16.5C13.0969 15.8812 13.4063 15.2625 13.7156 14.6437C14.025 14.025 14.4375 13.4062 14.85 12.8906C15.4687 12.8906 16.1906 12.7875 16.9125 12.7875C17.6344 12.7875 18.2531 12.7875 18.975 12.8906C19.3875 13.4062 19.6969 14.025 20.1094 14.6437C20.4188 15.2625 20.7281 15.8812 21.0375 16.5C20.625 17.1188 20.2125 17.7375 19.9031 18.3562ZM21.45 17.8406C21.6562 18.4594 21.8625 18.975 22.0687 19.5938C21.45 19.6969 20.8313 19.8 20.2125 19.9031C20.4188 19.5937 20.625 19.2844 20.8313 18.8719C21.0375 18.5625 21.2437 18.15 21.45 17.8406ZM16.7063 22.6875C16.2938 22.275 15.8813 21.7594 15.4688 21.2438C15.8813 21.2438 16.2938 21.2438 16.7063 21.2438C17.1188 21.2438 17.5312 21.2438 17.9437 21.2438C17.5312 21.7594 17.1188 22.275 16.7063 22.6875ZM13.2 19.9031C12.5813 19.8 11.9625 19.6969 11.3438 19.5938C11.55 18.975 11.7563 18.4594 11.9625 17.8406C12.1688 18.15 12.375 18.5625 12.5812 18.8719C12.7875 19.2844 12.9938 19.5937 13.2 19.9031ZM12.0656 15.1594C11.8594 14.5406 11.6531 13.9219 11.4469 13.4062C12.0656 13.3031 12.6844 13.2 13.3031 13.0969C13.0969 13.4062 12.8906 13.8187 12.6844 14.1281C12.375 14.4375 12.1687 14.85 12.0656 15.1594ZM16.7063 10.3125C17.1188 10.725 17.5312 11.2406 17.9437 11.7562C17.5312 11.7562 17.1188 11.7562 16.7063 11.7562C16.2938 11.7562 15.8813 11.7562 15.4688 11.7562C15.8813 11.2406 16.2938 10.725 16.7063 10.3125ZM20.8313 14.1281C20.625 13.7156 20.4188 13.4062 20.2125 13.0969C20.8313 13.2 21.45 13.3031 22.0687 13.4062C21.8625 14.025 21.6562 14.6437 21.45 15.1594C21.2437 14.85 21.0375 14.4375 20.8313 14.1281ZM10.8281 10.9313C10.6219 9.17813 10.8281 7.8375 11.55 7.425C11.6531 7.32187 11.8594 7.32187 12.0656 7.32187C12.9937 7.32187 14.4375 8.04375 15.9844 9.59063C15.3656 10.3125 14.7469 11.0344 14.1281 11.8594C13.0969 11.9625 12.0656 12.1687 11.1375 12.375C10.9313 11.8594 10.8281 11.3438 10.8281 10.9313ZM8.97187 18.7688C7.32187 18.0469 6.29062 17.2219 6.29062 16.3969C6.29062 15.675 7.32187 14.7469 8.97187 14.025C9.38437 13.8188 9.79688 13.7156 10.3125 13.6125C10.6219 14.5406 10.9312 15.4687 11.3438 16.3969C10.9312 17.325 10.5188 18.2531 10.3125 19.1813C9.79688 19.1813 9.38437 18.975 8.97187 18.7688ZM11.55 25.575C10.9312 25.1625 10.6219 23.8219 10.8281 22.0687C10.9313 21.6562 10.9313 21.1406 11.1375 20.625C12.0656 20.8313 12.9938 21.0375 14.025 21.1406C14.6438 21.9656 15.2625 22.7906 15.9844 23.5125C14.4375 24.9562 12.9937 25.7812 12.0656 25.7812C11.8594 25.6781 11.6531 25.6781 11.55 25.575ZM22.6875 22.0687C22.8938 23.8219 22.6875 25.1625 21.9656 25.575C21.8625 25.6781 21.6562 25.6781 21.45 25.6781C20.5219 25.6781 19.0781 24.9563 17.5312 23.4094C18.15 22.6875 18.8719 21.9656 19.4906 21.0375C20.5219 20.9344 21.5531 20.8312 22.3781 20.5219C22.4813 21.1406 22.5844 21.6562 22.6875 22.0687ZM24.5437 18.7688C24.1312 18.975 23.7188 19.0781 23.2031 19.2844C22.8937 18.3563 22.5844 17.4281 22.1719 16.5C22.5844 15.5719 22.9969 14.5406 23.2031 13.7156C23.7188 13.8188 24.1312 14.025 24.5437 14.1281C26.1937 14.85 27.225 15.675 27.225 16.5C27.225 17.2219 26.1937 18.15 24.5437 18.7688Z" fill="white"/>
<path d="M16.8092 18.6656C18.0467 18.6656 18.9748 17.7375 18.9748 16.5C18.9748 15.2625 18.0467 14.3344 16.8092 14.3344C15.5717 14.3344 14.6436 15.2625 14.6436 16.5C14.6436 17.7375 15.5717 18.6656 16.8092 18.6656Z" fill="white"/>
</svg>

<svg width="33" height="33" fill="none" xmlns="http://www.w3.org/2000/svg"><path d="M6.188 2.063h20.625a4.137 4.137 0 0 1 4.125 4.124v20.625a4.137 4.137 0 0 1-4.125 4.125H6.188a4.137 4.137 0 0 1-4.125-4.125V6.188a4.137 4.137 0 0 1 4.124-4.125z" fill="#902BA9"/><path d="M28.36 16.5c0-1.65-1.96-2.99-4.848-3.919.722-2.99.413-5.362-.928-6.084-.412-.206-.721-.31-1.134-.31-1.34 0-2.99.929-4.64 2.579-1.754-1.65-3.404-2.579-4.744-2.579-.413 0-.825.104-1.135.31-1.34.722-1.65 3.094-.928 6.084-2.887.928-4.847 2.269-4.847 3.919s1.96 2.99 4.847 3.919c-.722 2.99-.515 5.362.928 6.187.31.206.722.31 1.135.31 1.34 0 2.99-.928 4.64-2.579 1.65 1.65 3.403 2.579 4.64 2.579.413 0 .826-.104 1.135-.31 1.34-.825 1.65-3.197.928-6.187 2.991-.928 4.95-2.372 4.95-3.919zm-6.91-9.178c.206 0 .413 0 .516.103.618.413.928 1.753.721 3.506-.103.413-.103.928-.206 1.34-.928-.205-1.96-.412-2.99-.515-.62-.825-1.238-1.65-1.857-2.268 1.444-1.444 2.888-2.166 3.816-2.166zm-1.547 11.034c-.31.619-.722 1.135-1.031 1.753-.722 0-1.34.103-2.063.103-.722 0-1.443 0-2.062-.103-.413-.515-.722-1.134-1.031-1.753-.31-.619-.62-1.237-.928-1.856l.928-1.856a10.22 10.22 0 0 1 1.134-1.753c.619 0 1.34-.104 2.063-.104.721 0 1.34 0 2.062.104.412.515.722 1.134 1.134 1.753.31.618.62 1.237.928 1.856-.412.619-.825 1.238-1.134 1.856zm1.547-.515c.206.618.413 1.134.619 1.753l-1.857.31a9.07 9.07 0 0 0 .62-1.032c.206-.31.412-.722.618-1.031zm-4.744 4.846c-.412-.412-.825-.928-1.237-1.443h2.475c-.413.515-.825 1.031-1.238 1.444zM13.2 19.904l-1.856-.31c.206-.618.412-1.134.619-1.752.206.309.412.721.618 1.03.207.413.413.723.619 1.032zm-1.134-4.744a33.536 33.536 0 0 0-.62-1.753l1.857-.31c-.206.31-.412.723-.619 1.032-.309.31-.515.722-.618 1.031zm4.64-4.847c.413.413.825.929 1.238 1.444h-2.475c.412-.515.825-1.031 1.237-1.444zm4.125 3.816a9.061 9.061 0 0 0-.619-1.031l1.857.31a33.536 33.536 0 0 1-.619 1.752c-.206-.309-.412-.722-.619-1.03zm-10.003-3.197c-.206-1.753 0-3.093.722-3.506.103-.103.31-.103.516-.103.928 0 2.371.722 3.918 2.269-.618.722-1.237 1.443-1.856 2.268-1.031.104-2.062.31-2.99.516-.207-.516-.31-1.031-.31-1.444zM8.972 18.77c-1.65-.722-2.681-1.547-2.681-2.372 0-.722 1.03-1.65 2.68-2.372.413-.206.826-.31 1.341-.412.31.928.62 1.856 1.032 2.784-.413.928-.825 1.856-1.031 2.784-.516 0-.929-.206-1.341-.412zm2.578 6.806c-.619-.412-.928-1.753-.722-3.506.103-.413.103-.928.31-1.444.928.206 1.856.413 2.887.516.619.825 1.237 1.65 1.96 2.372-1.547 1.443-2.991 2.268-3.92 2.268-.206-.103-.412-.103-.515-.206zm11.137-3.506c.207 1.753 0 3.094-.721 3.506-.104.103-.31.103-.516.103-.928 0-2.372-.722-3.919-2.269.619-.721 1.34-1.443 1.96-2.371 1.03-.104 2.062-.207 2.887-.516.103.619.206 1.134.31 1.547zm1.857-3.3c-.413.206-.825.31-1.34.515-.31-.928-.62-1.856-1.032-2.784.412-.928.825-1.96 1.031-2.784.516.103.928.309 1.34.412 1.65.722 2.682 1.547 2.682 2.372 0 .722-1.031 1.65-2.681 2.269z" fill="#fff"/><path d="M16.81 18.666c1.237 0 2.165-.928 2.165-2.166s-.928-2.166-2.166-2.166c-1.237 0-2.165.928-2.165 2.166s.928 2.166 2.165 2.166z" fill="#fff"/></svg>
